styles/2/Numix/64/places/yellow-folder-ubuntu.svg

<?xml version="1.0" encoding="UTF-8" standalone="no"?>
<svg
   xmlns:dc="http://purl.org/dc/elements/1.1/"
   xmlns:cc="http://creativecommons.org/ns#"
   xmlns:rdf="http://www.w3.org/1999/02/22-rdf-syntax-ns#"
   xmlns:svg="http://www.w3.org/2000/svg"
   xmlns="http://www.w3.org/2000/svg"
   xmlns:sodipodi="http://sodipodi.sourceforge.net/DTD/sodipodi-0.dtd"
   xmlns:inkscape="http://www.inkscape.org/namespaces/inkscape"
   width="64"
   height="64"
   viewBox="0 0 64 64"
   id="svg3111"
   version="1.1"
   inkscape:version="0.91 r"
   sodipodi:docname="yellow-folder-ubuntu.svg">
  <metadata
     id="metadata3125">
    <rdf:RDF>
      <cc:Work
         rdf:about="">
        <dc:format>image/svg+xml</dc:format>
        <dc:type
           rdf:resource="http://purl.org/dc/dcmitype/StillImage" />
      </cc:Work>
    </rdf:RDF>
  </metadata>
  <defs
     id="defs3123" />
  <sodipodi:namedview
     pagecolor="#ffffff"
     bordercolor="#666666"
     borderopacity="1"
     objecttolerance="10"
     gridtolerance="10"
     guidetolerance="10"
     inkscape:pageopacity="0"
     inkscape:pageshadow="2"
     inkscape:window-width="1280"
     inkscape:window-height="998"
     id="namedview3121"
     showgrid="false"
     inkscape:zoom="10.429825"
     inkscape:cx="57.248196"
     inkscape:cy="27.692748"
     inkscape:window-x="0"
     inkscape:window-y="0"
     inkscape:window-maximized="1"
     inkscape:current-layer="svg3111" />
  <path
     style="fill:#ffca28;fill-opacity:1;stroke:none"
     d="M 9,8.0000004 C 7.536083,8.0000004 6,9.5112224 6,11 l 0,1 -3,0 c -1.470099,0 -3,1.49533 -3,3 l 0,38 c 0,2 1,3 3,3 l 58,0 c 1.567614,0 3,-1.358342 3,-3 l 0,-33 c 0,-1.504928 -1.455038,-3 -3,-3 l -3,0 0,-6 C 58,9.5388434 56.546781,8.0000004 55,8.0000004 z"
     id="path6"
     inkscape:connector-curvature="0"
     sodipodi:nodetypes="ssccssssscccsss" />
  <path
     inkscape:connector-curvature="0"
     style="fill:#000000;fill-opacity:0.32156863;stroke:none"
     d="M 9,8.0000004 C 7.536083,8.0000004 6,9.5112224 6,11 l 0,1 -3,0 c -1.470099,0 -3,1.49533 -3,3 l 0,38 c 0,2 1,3 3,3 l 58,0 c 1.567614,0 3,-1.358342 3,-3 l 0,-33 c 0,-1.504928 -1.455038,-3 -3,-3 l -3,0 0,-6 C 58,9.5388434 56.546781,8.0000004 55,8.0000004 l -46,0 z M 3,14 37,14 c 0.590175,0 1,0.51477 1,1 l 0,4 23,0 c 0.505551,0 1,0.508742 1,1 l 0,33 c 0,0.521292 -0.478766,1 -1,1 L 3,54 C 2.535705,54 2,53.603654 2,53 L 2,15 c 0,-0.492405 0.516529,-1 1,-1 z"
     id="path3778" />
  <path
     style="opacity:1;fill:#000000;fill-opacity:0.32156864000000002;stroke:none"
     d="M 43 22 C 41.343146 22 40 23.343146 40 25 C 40 26.656854 41.343146 28 43 28 C 44.656854 28 46 26.656854 46 25 C 46 23.343146 44.656854 22 43 22 z M 32 24 C 29.707986 24 27.570102 24.6326 25.75 25.75 L 28.71875 28.71875 C 29.72034 28.26745 30.830161 28 32 28 C 36.078288 28 39.44369 31.0556 39.9375 35 L 43.9375 35 C 43.775047 33.0804 43.176299 31.27455 42.21875 29.71875 C 41.843044 29.88805 41.438856 30 41 30 C 39.343147 30 38 28.6569 38 27 C 38 26.5611 38.111917 26.15695 38.28125 25.78125 C 36.454288 24.65685 34.30261 24 32 24 z M 24.15625 26.96875 C 22.277268 28.60695 20.89036 30.8001 20.3125 33.3125 C 21.307783 33.8007 22 34.8166 22 36 C 22 37.1834 21.307783 38.1993 20.3125 38.6875 C 20.935065 41.3942 22.454242 43.7703 24.5625 45.4375 L 27.4375 42.5625 C 25.362257 41.1172 24 38.7207 24 36 C 24 33.4897 25.159811 31.24795 26.96875 29.78125 L 24.15625 26.96875 z M 16 33 C 14.343146 33 13 34.343146 13 36 C 13 37.656854 14.343146 39 16 39 C 17.656854 39 19 37.656854 19 36 C 19 34.343146 17.656854 33 16 33 z M 39.9375 37 C 39.44369 40.9444 36.078288 44 32 44 C 31.054213 44 30.154694 43.8013 29.3125 43.5 L 26.28125 46.53125 C 27.983173 47.46115 29.924037 48 32 48 C 33.512742 48 34.948233 47.72955 36.28125 47.21875 C 36.111917 46.84295 36 46.4389 36 46 C 36 44.3431 37.343147 43 39 43 C 39.804062 43 40.523859 43.32875 41.0625 43.84375 C 42.682974 41.97295 43.721756 39.6125 43.9375 37 L 39.9375 37 z M 41 45 C 39.343146 45 38 46.343146 38 48 C 38 49.656854 39.343146 51 41 51 C 42.656854 51 44 49.656854 44 48 C 44 46.343146 42.656854 45 41 45 z "
     id="path3007" />
</svg>

<svg xmlns="http://www.w3.org/2000/svg" viewBox="0 0 64 64">
 <path d="m 9 8 c -1.464 0 -3 1.511 -3 3 l 0 1 -3 0 c -1.47 0 -3 1.495 -3 3 l 0 38 c 0 2 1 3 3 3 l 58 0 c 1.568 0 3 -1.358 3 -3 l 0 -33 c 0 -1.505 -1.455 -3 -3 -3 l -3 0 0 -6 c 0 -1.461 -1.453 -3 -3 -3 z" style="fill:#ffca28;fill-opacity:1;stroke:none"/>
 <path d="m 9 8 c -1.464 0 -3 1.511 -3 3 l 0 1 -3 0 c -1.47 0 -3 1.495 -3 3 l 0 38 c 0 2 1 3 3 3 l 58 0 c 1.568 0 3 -1.358 3 -3 l 0 -33 c 0 -1.505 -1.455 -3 -3 -3 l -3 0 0 -6 c 0 -1.461 -1.453 -3 -3 -3 l -46 0 z m -6 6 34 0 c 0.59 0 1 0.515 1 1 l 0 4 23 0 c 0.506 0 1 0.509 1 1 l 0 33 c 0 0.521 -0.479 1 -1 1 l -58 0 c -0.464 0 -1 -0.396 -1 -1 l 0 -38 c 0 -0.492 0.517 -1 1 -1 z" style="fill:#000;fill-opacity:0.322;stroke:none"/>
 <path d="m 43 22 c -1.657 0 -3 1.343 -3 3 c 0 1.657 1.343 3 3 3 c 1.657 0 3 -1.343 3 -3 c 0 -1.657 -1.343 -3 -3 -3 z m -11 2 c -2.292 0 -4.43 0.633 -6.25 1.75 l 2.969 2.969 c 1 -0.451 2.111 -0.719 3.281 -0.719 c 4.078 0 7.444 3.056 7.938 7 l 4 0 c -0.162 -1.92 -0.761 -3.725 -1.719 -5.281 c -0.376 0.169 -0.78 0.281 -1.219 0.281 c -1.657 0 -3 -1.343 -3 -3 c 0 -0.439 0.112 -0.843 0.281 -1.219 c -1.827 -1.124 -3.979 -1.781 -6.281 -1.781 z m -7.844 2.969 c -1.879 1.638 -3.266 3.831 -3.844 6.344 c 0.995 0.488 1.688 1.504 1.688 2.688 c 0 1.183 -0.692 2.199 -1.688 2.688 c 0.623 2.707 2.142 5.083 4.25 6.75 l 2.875 -2.875 c -2.075 -1.445 -3.438 -3.842 -3.438 -6.563 c 0 -2.51 1.16 -4.752 2.969 -6.219 l -2.813 -2.813 z m -8.156 6.03 c -1.657 0 -3 1.343 -3 3 c 0 1.657 1.343 3 3 3 c 1.657 0 3 -1.343 3 -3 c 0 -1.657 -1.343 -3 -3 -3 z m 23.938 4 c -0.494 3.944 -3.859 7 -7.938 7 c -0.946 0 -1.845 -0.199 -2.688 -0.5 l -3.03 3.03 c 1.702 0.93 3.643 1.469 5.719 1.469 c 1.513 0 2.948 -0.27 4.281 -0.781 c -0.169 -0.376 -0.281 -0.78 -0.281 -1.219 c 0 -1.657 1.343 -3 3 -3 c 0.804 0 1.524 0.329 2.063 0.844 c 1.62 -1.871 2.659 -4.231 2.875 -6.844 l -4 0 z m 1.063 8 c -1.657 0 -3 1.343 -3 3 c 0 1.657 1.343 3 3 3 c 1.657 0 3 -1.343 3 -3 c 0 -1.657 -1.343 -3 -3 -3 z" style="fill:#000;opacity:1;fill-opacity:0.322;stroke:none"/>
</svg>
